!!!OTL: Xingfu shenghuo lehehe
!!!ARE: Asia, China,ÿHunan Lianyuan
!! I, 499
!!!SCT: C2178
!!!YEM: Copyright 1995, estate of Helmut Schaffrath.
**kern
*ICvox
*Ivox
*M2/4
*k[]
*C:
{8dd
8ee
8dd
8ee
=1
8cc
8ee
4dd
=2
4cc
8a
8r}
=3
{8a
8dd
8cc
8dd
=4
8dd
8a
8cc
8a
=5
4g
4a}
=6
{8g
8a
8cc
8cc
=7
8dd
8a
8g
8g
=8
8a
8cc
8dd
8a
=9
8cc
8a
8g
8g
=10
4cc
8a
8r
=11
4cc
8a
8r}
==
!!!AGN: Shange
!!!ONB: ESAC (Essen Associative Code) Database: SENGANSU
!!!AMT: simple duple
!!!AIN: vox
!!!EED: Helmut Schaffrath
!!!EEV: 1.0
*-
